!!!COM: Josquin des Prez
!!!CDT: ~1450-1521/08/27
!!!OTL@@LAT: Huc me sydereo
!!!OTL2@@LAT: Felle sitim magni regis
!!!AGN: Motet
!!!SCT: NJE 21.5
!!!SCA: New Josquin Edition 21.5
!!!ONB: Sextus voice removed
!!!voices: 5
**kern	**text	**kern	**text	**kern	**text	**kern	**text	**kern	**text
*staff5	*staff5	*staff4	*staff4	*staff3	*staff3	*staff2	*staff2	*staff1	*staff1
*Ivox	*	*Ivox	*	*Ivox	*	*Ivox	*	*Ivox	*
*I"Bassus2	*	*I"Bassus1	*	*I"Tenor	*	*I"Altus	*	*I"Discantus	*
*I'B2	*	*I'B1	*	*I'T	*	*I'A	*	*I'D	*
*>[A,B]	*>[A,B]	*>[A,B]	*>[A,B]	*>[A,B]	*>[A,B]	*>[A,B]	*>[A,B]	*>[A,B]	*>[A,B]
*>A	*>A	*>A	*>A	*>A	*>A	*>A	*>A	*>A	*>A
*clefF4	*	*clefF4	*	*clefGv2	*	*clefGv2	*	*clefG2	*
*k[b-]	*	*k[b-]	*	*k[b-]	*	*k[b-]	*	*k[b-]	*
*M2/1	*	*M2/1	*	*M2/1	*	*M2/1	*	*M2/1	*
*met(C|)	*	*met(C|)	*	*met(C|)	*	*met(C|)	*	*met(C|)	*
!!primary-mensuration: met(C|)
=1-	=1-	=1-	=1-	=1-	=1-	=1-	=1-	=1-	=1-
0r	.	0r	.	0r	.	0A	Huc	1r	.
.	.	.	.	.	.	.	.	[1a	Huc
=2	=2	=2	=2	=2	=2	=2	=2	=2	=2
0r	.	0r	.	0r	.	0r	.	2a/]	.
.	.	.	.	.	.	.	.	2f/	.
.	.	.	.	.	.	.	.	1f	me
=3	=3	=3	=3	=3	=3	=3	=3	=3	=3
0r	.	0r	.	0r	.	0r	.	1g	sy-
.	.	.	.	.	.	.	.	1a	.
=4	=4	=4	=4	=4	=4	=4	=4	=4	=4
0r	.	0r	.	0r	.	1r	.	1.b-	-de-
.	.	.	.	.	.	[1d	Huc	.	.
.	.	.	.	.	.	.	.	4a/	.
.	.	.	.	.	.	.	.	4g/	.
=5	=5	=5	=5	=5	=5	=5	=5	=5	=5
0r	.	0r	.	0r	.	2d\]	.	2f/	.
.	.	.	.	.	.	2B-\	.	2d/	.
.	.	.	.	.	.	1B-	me	[1g	.
=6	=6	=6	=6	=6	=6	=6	=6	=6	=6
0r	.	0r	.	0r	.	1c	sy-	2g/]	.
.	.	.	.	.	.	.	.	4f/	.
.	.	.	.	.	.	.	.	4e/	.
.	.	.	.	.	.	1d	.	2.f/	-re-
.	.	.	.	.	.	.	.	4g/	.
=7	=7	=7	=7	=7	=7	=7	=7	=7	=7
0r	.	0r	.	0r	.	1.e-	-de-	0g	-o,
.	.	.	.	.	.	4d\	.	.	.
.	.	.	.	.	.	4c\	.	.	.
=8	=8	=8	=8	=8	=8	=8	=8	=8	=8
0r	.	0r	.	0r	.	2B-\	.	1g	sy-
.	.	.	.	.	.	2G/	.	.	.
.	.	.	.	.	.	[1c	.	1a	.
=9	=9	=9	=9	=9	=9	=9	=9	=9	=9
0r	.	0r	.	0r	.	2c\]	.	2g/	-de-
.	.	.	.	.	.	4B-\	.	1a	-re-
.	.	.	.	.	.	4A/	.	.	.
.	.	.	.	.	.	2.B-\	-re-	.	.
.	.	.	.	.	.	.	.	4g/	.
.	.	.	.	.	.	4c\	.	4f/	.
=10	=10	=10	=10	=10	=10	=10	=10	=10	=10
0r	.	1r	.	0r	.	0c	-o,	0e	-o,
.	.	[1A	Huc	.	.	.	.	.	.
=11	=11	=11	=11	=11	=11	=11	=11	=11	=11
0r	.	2A\]	.	0r	.	1c	sy-	2r	.
.	.	2F\	.	.	.	.	.	1a	sy-
.	.	1F	me	.	.	[1d	-de-	.	.
.	.	.	.	.	.	.	.	4g/	-de-
.	.	.	.	.	.	.	.	4a/	.
=12	=12	=12	=12	=12	=12	=12	=12	=12	=12
0r	.	1G	sy-	0r	.	2d\]	.	4b-\	-re-
.	.	.	.	.	.	.	.	4a/	.
.	.	.	.	.	.	2B-\	.	4g/	.
.	.	.	.	.	.	.	.	4f/	.
.	.	1A	.	.	.	2.c\	-re-	1e	.
.	.	.	.	.	.	4d\	.	.	.
=13	=13	=13	=13	=13	=13	=13	=13	=13	=13
1r	.	1.B-	-de-	0r	.	0d	-o,	0d	-o,
[1D	Huc	.	.	.	.	.	.	.	.
.	.	4A\	.	.	.	.	.	.	.
.	.	4G\	.	.	.	.	.	.	.
=14	=14	=14	=14	=14	=14	=14	=14	=14	=14
2D\]	.	2F\	.	0r	.	2r	.	0r	.
2BB-/	.	2D\	.	.	.	1d	sy-	.	.
1BB-	me	[1G	.	.	.	.	.	.	.
.	.	.	.	.	.	4c\	.	.	.
.	.	.	.	.	.	4d\	.	.	.
=15	=15	=15	=15	=15	=15	=15	=15	=15	=15
1C	sy-	2G\]	.	0r	.	4e-i\	-de-	0r	.
.	.	.	.	.	.	4d\	.	.	.
.	.	4F\	.	.	.	4c\	.	.	.
.	.	4E\	.	.	.	4B-\	.	.	.
1D	.	2.F\	-re-	.	.	1A	-re-	.	.
.	.	4G\	.	.	.	.	.	.	.
=16	=16	=16	=16	=16	=16	=16	=16	=16	=16
1.E-	-de-	0G	-o,	0r	.	[0G	-o,	0r	.
4D\	.	.	.	.	.	.	.	.	.
4C/	.	.	.	.	.	.	.	.	.
=17	=17	=17	=17	=17	=17	=17	=17	=17	=17
2BB-/	.	1D	sy-	0r	.	0G_	.	0r	.
2GG/	.	.	.	.	.	.	.	.	.
[1C	.	[1E	-de-	.	.	.	.	.	.
=18	=18	=18	=18	=18	=18	=18	=18	=18	=18
2C/]	.	2E\]	.	0r	.	0G_	.	0r	.
4BB-/	.	4D\	.	.	.	.	.	.	.
4AA/	.	4C/	.	.	.	.	.	.	.
2.BB-/	-re-	2.D\	-re-	.	.	.	.	.	.
4C/	.	4E\	.	.	.	.	.	.	.
=19	=19	=19	=19	=19	=19	=19	=19	=19	=19
[0C	-o,	[0E	-o,	0r	.	0G]	.	1r	.
.	.	.	.	.	.	.	.	1g	de-
=20	=20	=20	=20	=20	=20	=20	=20	=20	=20
0C_	.	0E]	.	0r	.	1r	.	1.g	-scen-
.	.	.	.	.	.	1c	de-	.	.
.	.	.	.	.	.	.	.	2f/	.
=21	=21	=21	=21	=21	=21	=21	=21	=21	=21
0C]	.	1r	.	0r	.	1.c	-scen-	2e/	.
.	.	.	.	.	.	.	.	2d/	-de-
.	.	1A	de-	.	.	.	.	1c	-re,
.	.	.	.	.	.	2B-\	.	.	.
=22	=22	=22	=22	=22	=22	=22	=22	=22	=22
[0D	.	1.A	-scen-	0r	.	2A/	.	1r	.
.	.	.	.	.	.	2G/	-de-	.	.
.	.	.	.	.	.	1F	-re,	1a	de-
.	.	2G\	.	.	.	.	.	.	.
=23	=23	=23	=23	=23	=23	=23	=23	=23	=23
0D_	.	2F\	.	0r	.	1r	.	1.a	-scen-
.	.	2E\	-de-	.	.	.	.	.	.
.	.	1D	-re,	.	.	1d	de-	.	.
.	.	.	.	.	.	.	.	2g/	.
=24	=24	=24	=24	=24	=24	=24	=24	=24	=24
0D]	.	1r	.	0r	.	1.d	-scen-	2f/	.
.	.	.	.	.	.	.	.	2e/	-de-
.	.	1d	de-	.	.	.	.	1d	-re,
.	.	.	.	.	.	2c\	.	.	.
=25	=25	=25	=25	=25	=25	=25	=25	=25	=25
0r	.	1.d	-scen-	0r	.	2B-\	.	1r	.
.	.	.	.	.	.	2A/	-de-	.	.
.	.	.	.	.	.	1G	-re,	1dd	de-
.	.	2c\	.	.	.	.	.	.	.
=26	=26	=26	=26	=26	=26	=26	=26	=26	=26
0r	.	2B-\	.	0r	.	1r	.	1.dd	-scen-
.	.	2A\	-de-	.	.	.	.	.	.
.	.	1G	-re,	.	.	1g	de-	.	.
.	.	.	.	.	.	.	.	2cc\	.
=27	=27	=27	=27	=27	=27	=27	=27	=27	=27
0r	.	0r	.	0r	.	1.g	-scen-	2b-\	.
.	.	.	.	.	.	.	.	2a/	-de-
.	.	.	.	.	.	.	.	[1g	-re
.	.	.	.	.	.	2f\	.	.	.
=28	=28	=28	=28	=28	=28	=28	=28	=28	=28
0r	.	0r	.	0r	.	2e\	.	2g/]	.
.	.	.	.	.	.	2d\	-de-	2f/	jus-
.	.	.	.	.	.	2c\	-re	2e/	-sit
.	.	.	.	.	.	2B-\	jus-	2d/	O-
=29	=29	=29	=29	=29	=29	=29	=29	=29	=29
0r	.	0r	.	0r	.	2A/	-sit	2c/	-lim-
.	.	.	.	.	.	2G/	O-	2B-/	.
.	.	.	.	.	.	1c	-lim-	1A	.
=30	=30	=30	=30	=30	=30	=30	=30	=30	=30
1r	.	1d	de-	0r	.	0B-	-po,	0G	-po,
1d	de-	[1d	-scen-	.	.	.	.	.	.
=31	=31	=31	=31	=31	=31	=31	=31	=31	=31
1.d	-scen-	2d\]	.	0r	.	0r	.	0r	.
.	.	2c\	.	.	.	.	.	.	.
.	.	2B-\	.	.	.	.	.	.	.
2c\	.	2A\	-de-	.	.	.	.	.	.
=32	=32	=32	=32	=32	=32	=32	=32	=32	=32
2B-\	.	1.G	-re	0r	.	0r	.	0r	.
2A\	-de-	.	.	.	.	.	.	.	.
[1G	-re,	.	.	.	.	.	.	.	.
.	.	2F\	jus-	.	.	.	.	.	.
=33	=33	=33	=33	=33	=33	=33	=33	=33	=33
2G\]	.	2E\	-sit	0r	.	0r	.	0r	.
2F\	jus-	2D\	O-	.	.	.	.	.	.
2E\	-sit	2C/	-lim-	.	.	.	.	.	.
2D\	O-	2BB-/	.	.	.	.	.	.	.
=34	=34	=34	=34	=34	=34	=34	=34	=34	=34
2C/	-lim-	4AA/	.	0r	.	0r	.	0r	.
.	.	4GG/	.	.	.	.	.	.	.
2BB-/	.	2.G\	.	.	.	.	.	.	.
1AA	.	.	.	.	.	.	.	.	.
.	.	4F#i\	.	.	.	.	.	.	.
.	.	4F#i\	.	.	.	.	.	.	.
.	.	4E\	.	.	.	.	.	.	.
=35	=35	=35	=35	=35	=35	=35	=35	=35	=35
[0GG	-po,	[0G	-po,	0r	.	1r	.	1r	.
.	.	.	.	.	.	[1B-	hic	[1d	hic
=36	=36	=36	=36	=36	=36	=36	=36	=36	=36
0GG]	.	0G]	.	0r	.	1B-]	.	1d]	.
.	.	.	.	.	.	1B-	me	1d	me
=37	=37	=37	=37	=37	=37	=37	=37	=37	=37
0r	.	0r	.	0r	.	1B-	cru-	1d	cru-
.	.	.	.	.	.	[1c	-de-	[1e	-de-
=38	=38	=38	=38	=38	=38	=38	=38	=38	=38
0r	.	0r	.	0r	.	2c\]	.	2e/]	.
.	.	.	.	.	.	2A/	.	2c/	.
.	.	.	.	.	.	2A/	-li	1c	-li
.	.	.	.	.	.	[2F/	vul-	.	.
=39	=39	=39	=39	=39	=39	=39	=39	=39	=39
0r	.	0r	.	0r	.	2F/]	.	1.f	vul-
.	.	.	.	.	.	2D/	-ne-	.	.
.	.	.	.	.	.	2D/	-re	.	.
.	.	.	.	.	.	[2B-\	fi-	2f/	-ne-
=40	=40	=40	=40	=40	=40	=40	=40	=40	=40
0r	.	0r	.	0r	.	2B-\]	.	1f	-re
.	.	.	.	.	.	4A/	.	.	.
.	.	.	.	.	.	4G/	.	.	.
.	.	.	.	.	.	2A/	.	[1f	fi-
.	.	.	.	.	.	[2d\	.	.	.
=41	=41	=41	=41	=41	=41	=41	=41	=41	=41
0r	.	0r	.	0r	.	2d\]	.	2f/]	.
.	.	.	.	.	.	4c#i\	.	4e/	.
.	.	.	.	.	.	4Bni\	.	4d/	.
.	.	.	.	.	.	2c#i\	-xit	2e/	-xit
.	.	.	.	.	.	2d\	a-	2d/	a-
=42	=42	=42	=42	=42	=42	=42	=42	=42	=42
1r	.	1r	.	0r	.	0d	-mor.	[0d	-mor.
[1G	hic	[1B-	hic	.	.	.	.	.	.
=43	=43	=43	=43	=43	=43	=43	=43	=43	=43
1G]	.	1B-]	.	0r	.	0r	.	0d]	.
1G	me	1B-	me	.	.	.	.	.	.
=44	=44	=44	=44	=44	=44	=44	=44	=44	=44
1G	cru-	1B-	cru-	0r	.	0r	.	0r	.
[1A	-de-	[1c	-de-	.	.	.	.	.	.
=45	=45	=45	=45	=45	=45	=45	=45	=45	=45
2A\]	.	2c\]	.	0r	.	0r	.	0r	.
2F\	.	2A\	.	.	.	.	.	.	.
1F	-li	2A\	-li	.	.	.	.	.	.
.	.	[2D\	vul-	.	.	.	.	.	.
=46	=46	=46	=46	=46	=46	=46	=46	=46	=46
1.B-	vul-	2D\]	.	0r	.	0r	.	0r	.
.	.	2BB-/	-ne-	.	.	.	.	.	.
.	.	2BB-/	-re	.	.	.	.	.	.
2B-\	-ne-	[2E-i\	fi-	.	.	.	.	.	.
=47	=47	=47	=47	=47	=47	=47	=47	=47	=47
1B-	-re	2E-\]	.	0r	.	0r	.	0r	.
.	.	4D\	.	.	.	.	.	.	.
.	.	4C/	.	.	.	.	.	.	.
[1B-	fi-	2D\	.	.	.	.	.	.	.
.	.	[2G\	.	.	.	.	.	.	.
=48	=48	=48	=48	=48	=48	=48	=48	=48	=48
2B-\]	.	2G\]	.	0r	.	0r	.	0r	.
4A\	.	4F#i\	.	.	.	.	.	.	.
4G\	.	4E\	.	.	.	.	.	.	.
2A\	-xit	2F#i\	-xit	.	.	.	.	.	.
2G\	a-	2G\	a-	.	.	.	.	.	.
=49	=49	=49	=49	=49	=49	=49	=49	=49	=49
[0G	-mor.	0G	-mor.	[0G	Plan-	0r	.	1r	.
.	.	.	.	.	.	.	.	[1b-	Lan-
=50	=50	=50	=50	=50	=50	=50	=50	=50	=50
0G]	.	0GG	.	0G_	.	1.d	Lan-	1b-]	.
.	.	.	.	.	.	.	.	1b-	-gue-
.	.	.	.	.	.	2d\	-gue-	.	.
=51	=51	=51	=51	=51	=51	=51	=51	=51	=51
0GG	.	0G	.	0G]	.	1d	-o	1b-	-o
.	.	.	.	.	.	1d	nec	1b-	nec
=52	=52	=52	=52	=52	=52	=52	=52	=52	=52
1.D	Lan-	1.F	Lan-	[0A	-gent	0d	quis-	1.a	quis-
2D\	-gue-	2F\	-gue-	.	.	.	.	2f/	.
=53	=53	=53	=53	=53	=53	=53	=53	=53	=53
1D	-o	1F	-o	0A_	.	1A	-quam	1f	-quam
1D	nec	1F	nec	.	.	2.D/	nos-	2r	.
.	.	.	.	.	.	.	.	[2f/	nos-
.	.	.	.	.	.	4E/	.	.	.
=54	=54	=54	=54	=54	=54	=54	=54	=54	=54
0D	quis-	1.F	quis-	0A]	.	2F/	.	2f/]	.
.	.	.	.	.	.	2G/	.	2d/	.
.	.	.	.	.	.	1A	-tro	1f	-tro
.	.	4E\	.	.	.	.	.	.	.
.	.	4D\	.	.	.	.	.	.	.
=55	=55	=55	=55	=55	=55	=55	=55	=55	=55
0AA	-quam	0A	-quam	[0c	e-	1r	.	1e	suc-
.	.	.	.	.	.	[1A	suc-	[1cc	-cur-
=56	=56	=56	=56	=56	=56	=56	=56	=56	=56
0F	.	1r	.	0c_	.	2A/]	.	2cc\]	.
.	.	.	.	.	.	2B-\	.	2b-\	.
.	.	1F	nos-	.	.	2c\	.	1a	.
.	.	.	.	.	.	2d\	.	.	.
=57	=57	=57	=57	=57	=57	=57	=57	=57	=57
1.E-	.	2G\	-tro	0c]	.	0e-i	-cur-	0g	.
.	.	2C/	suc-	.	.	.	.	.	.
.	.	2.G\	-cur-	.	.	.	.	.	.
2D\	.	.	.	.	.	.	.	.	.
.	.	4A\	.	.	.	.	.	.	.
=58	=58	=58	=58	=58	=58	=58	=58	=58	=58
0BB-	.	1.B-	-rit	[0d	.	2.d\	-rit	[0f	-rit
.	.	.	.	.	.	4e\	.	.	.
.	.	.	.	.	.	2f\	.	.	.
.	.	4A\	a-	.	.	2B-\	a-	.	.
.	.	4G\	.	.	.	.	.	.	.
=59	=59	=59	=59	=59	=59	=59	=59	=59	=59
2r	.	2F\	-mo-	0d_	.	2A/	.	1f]	.
2BB-/	a-	2G\	.	.	.	1B-	-mo-	.	.
2.BB-/	-mo-	1D	-ri,	.	.	.	.	2r	.
.	.	.	.	.	.	4A/	.	2b-\	a-
4C/	.	.	.	.	.	4G/	.	.	.
=60	=60	=60	=60	=60	=60	=60	=60	=60	=60
2D\	.	2r	.	0d]	.	2F/	.	2a/	.
2GG/	.	2BB-/	a-	.	.	2G/	.	1b-	-mo-
1D	-ri,	2.BB-/	-mo-	.	.	2D/	-ri,	.	.
.	.	.	.	.	.	2B-\	a-	4a/	.
.	.	4C/	.	.	.	.	.	4g/	.
=61	=61	=61	=61	=61	=61	=61	=61	=61	=61
2r	.	2D\	.	[0d	-um	2A/	.	2f/	.
2BB-/	a-	2GG/	.	.	.	1B-	-mo-	2g/	.
2.BB-/	-mo-	1D	-ri,	.	.	.	.	2d/	-ri,
.	.	.	.	.	.	4A/	.	2b-\	a-
4C/	.	.	.	.	.	4G/	.	.	.
=62	=62	=62	=62	=62	=62	=62	=62	=62	=62
2D\	.	2r	.	0d_	.	2F/	.	2a/	.
2GG/	.	2BB-/	a-	.	.	2G/	.	1b-	-mo-
1D	-ri	2.BB-/	-mo-	.	.	2D/	-ri,	.	.
.	.	.	.	.	.	[2B-\	a-	4a/	.
.	.	4C/	.	.	.	.	.	4g/	.
=63	=63	=63	=63	=63	=63	=63	=63	=63	=63
1r	.	2D\	.	0d]	.	2B-\]	.	2f/	.
.	.	2GG/	.	.	.	4A/	.	2g/	.
.	.	.	.	.	.	4G/	.	.	.
[1F	nos-	1D	-ri	.	.	2F/	-mo-	1a	-ri
.	.	.	.	.	.	2G/	.	.	.
=64	=64	=64	=64	=64	=64	=64	=64	=64	=64
1F]	.	1r	.	0r	.	1A	-ri	0r	.
1F	-tro	[1D	nos-	.	.	1r	.	.	.
=65	=65	=65	=65	=65	=65	=65	=65	=65	=65
1F	suc-	1D]	.	0r	.	0d	nos-	0r	.
[1G	-cur-	1GG	-tro	.	.	.	.	.	.
=66	=66	=66	=66	=66	=66	=66	=66	=66	=66
1G]	.	1.B-	suc-	0r	.	1d	-tro	0r	.
[1D	-rit	.	.	.	.	1d	suc-	.	.
.	.	4A\	-cur-	.	.	.	.	.	.
.	.	4G\	.	.	.	.	.	.	.
=67	=67	=67	=67	=67	=67	=67	=67	=67	=67
1D]	.	1A	-rit	0r	.	1.d	-cur-	0r	.
[1F	a-	[1D	a-	.	.	.	.	.	.
.	.	.	.	.	.	2c\	-rit	.	.
=68	=68	=68	=68	=68	=68	=68	=68	=68	=68
2F\]	.	2D\]	.	0r	.	2.A/	a-	0r	.
4E\	.	4E\	.	.	.	.	.	.	.
4D\	.	4F\	.	.	.	4B-\	.	.	.
2E\	.	2G\	.	.	.	2c\	.	.	.
[2D\	-mo-	[2F\	-mo-	.	.	[2B-\	-mo-	.	.
=69	=69	=69	=69	=69	=69	=69	=69	=69	=69
2D\]	.	2F\]	.	0r	.	4B-\]	.	0r	.
.	.	.	.	.	.	4A/	.	.	.
2C/	.	2E\	.	.	.	1A	.	.	.
1BB-	.	1D	.	.	.	.	.	.	.
.	.	.	.	.	.	2G/	.	.	.
=70	=70	=70	=70	=70	=70	=70	=70	=70	=70
[0AA	-ri,	2.C/	.	[0c	qua-	0A	-ri,	1r	.
.	.	4D\	.	.	.	.	.	.	.
.	.	2E\	.	.	.	.	.	1cc	Quem
.	.	2F\	.	.	.	.	.	.	.
=71	=71	=71	=71	=71	=71	=71	=71	=71	=71
0AA]	.	2E\	.	0c_	.	1r	.	1.cc	ne-
.	.	2F\	.	.	.	.	.	.	.
.	.	1C	-ri,	.	.	1A	Quem	.	.
.	.	.	.	.	.	.	.	2cc\	-que-
=72	=72	=72	=72	=72	=72	=72	=72	=72	=72
0FF	.	1r	.	0c]	.	1.A	ne-	1cc	-unt
.	.	1F	Quem	.	.	.	.	[1a	du-
.	.	.	.	.	.	2F/	-que-	.	.
=73	=73	=73	=73	=73	=73	=73	=73	=73	=73
1r	.	1D	ne-	[0d	-si	1.F	-unt	2a/]	.
.	.	.	.	.	.	.	.	2f/	.
1BB-	Quem	1D	-que-	.	.	.	.	1f	-re,
.	.	.	.	.	.	[2B-\	du-	.	.
=74	=74	=74	=74	=74	=74	=74	=74	=74	=74
1GG	ne-	0G	-unt	0d]	.	2B-\]	.	1.b-	du-
.	.	.	.	.	.	2G/	.	.	.
1GG	-que-	.	.	.	.	[1G	-re,	.	.
.	.	.	.	.	.	.	.	2g/	.
=75	=75	=75	=75	=75	=75	=75	=75	=75	=75
0C	-unt	0E	du-	0e	u-	2G/]	.	1.g	-re,
.	.	.	.	.	.	1.c	.	.	.
.	.	.	.	.	.	.	.	[2cc\	.
=76	=76	=76	=76	=76	=76	=76	=76	=76	=76
0FF	du-	1F	-re,	0c	-ni-	2.A/	du-	1cc]	.
.	.	.	.	.	.	4F/	.	.	.
.	.	2r	.	.	.	[1F	-re,	2.a/	du-
.	.	[2F\	du-	.	.	.	.	.	.
.	.	.	.	.	.	.	.	4f/	.
=77	=77	=77	=77	=77	=77	=77	=77	=77	=77
0BB-	-re,	2F\]	.	[0d	-ge-	0F]	.	0f	-re,-
.	.	2D\	-re,	.	.	.	.	.	.
.	.	2.D\	du-	.	.	.	.	.	.
.	.	4BB-/	.	.	.	.	.	.	.
=78	=78	=78	=78	=78	=78	=78	=78	=78	=78
1r	.	0BB-	-re,-	1d]	.	[0B-	.	1f	-du-
1BB-	du-	.	.	1d	-ni-	.	.	[1b-\	.
=79	=79	=79	=79	=79	=79	=79	=79	=79	=79
0BB-	-re,	1r	.	[0d	-tum	0B-]	.	2b-\]	.
.	.	.	.	.	.	.	.	2a/	.
.	.	[1B-	-du-	.	.	.	.	2g/	.
.	.	.	.	.	.	.	.	4f/	.
.	.	.	.	.	.	.	.	4e/	.
=80	=80	=80	=80	=80	=80	=80	=80	=80	=80
1r	.	2B-\]	.	0d_	.	1r	.	1d	-re,
.	.	2A\	.	.	.	.	.	.	.
1BB-	du-	2G\	.	.	.	[1B-	du-	[1dd	du-
.	.	4F\	.	.	.	.	.	.	.
.	.	4E\	.	.	.	.	.	.	.
=81	=81	=81	=81	=81	=81	=81	=81	=81	=81
[0BB-	-re,-	0D	-re	0d]	.	2B-\]	.	2dd\]	.
.	.	.	.	.	.	2A/	.	2cc\	.
.	.	.	.	.	.	2G/	.	2b-\	.
.	.	.	.	.	.	4F/	.	4a/	.
.	.	.	.	.	.	4E/	.	4g/	.
=82	=82	=82	=82	=82	=82	=82	=82	=82	=82
0BB-]	.	1.B-	fran-	0r	.	1D	-re	0f	-re
.	.	.	.	.	.	[1f	fran-	.	.
.	.	2B-\	-ge-	.	.	.	.	.	.
=83	=83	=83	=83	=83	=83	=83	=83	=83	=83
0r	.	1B-	-re	0r	.	2f\]	.	0r	.
.	.	.	.	.	.	2f\	-ge-	.	.
.	.	1A	ju-	.	.	2f\	-re	.	.
.	.	.	.	.	.	[2e\	ju-	.	.
=84	=84	=84	=84	=84	=84	=84	=84	=84	=84
0r	.	2G\	-ra	0r	.	4e\]	.	0r	.
.	.	.	.	.	.	4d\	.	.	.
.	.	2F\	.	.	.	2d\	-ra	.	.
.	.	1E	cru-	.	.	2.c#i\	cru-	.	.
.	.	.	.	.	.	4d\	.	.	.
=85	=85	=85	=85	=85	=85	=85	=85	=85	=85
1.B-	-fran-	0D	-cis.	0r	.	0d	-cis.	1r	.
.	.	.	.	.	.	.	.	[1f	fran-
2B-\	-ge-	.	.	.	.	.	.	.	.
=86	=86	=86	=86	=86	=86	=86	=86	=86	=86
1B-	-re	0r	.	0r	.	0r	.	2f/]	.
.	.	.	.	.	.	.	.	2f/	-ge-
1A	ju-	.	.	.	.	.	.	2f/	-re
.	.	.	.	.	.	.	.	[2e/	ju-
=87	=87	=87	=87	=87	=87	=87	=87	=87	=87
2G\	-ra	0r	.	0r	.	0r	.	4e/]	.
.	.	.	.	.	.	.	.	4d/	.
2F\	.	.	.	.	.	.	.	2d/	-ra
1E	cru-	.	.	.	.	.	.	2.c#i/	cru-
.	.	.	.	.	.	.	.	4d/	.
=88	=88	=88	=88	=88	=88	=88	=88	=88	=88
0D	-cis.	1r	.	[0A	qui-	1r	.	0d	-cis.
.	.	1D	Pun-	.	.	1d	Pun-	.	.
=89	=89	=89	=89	=89	=89	=89	=89	=89	=89
1r	.	1.F	-gen-	0A_	.	1c	-gen-	1r	.
1D	Pun-	.	.	.	.	1d	-tem	1a	Pun-
.	.	2G\	.	.	.	.	.	.	.
=90	=90	=90	=90	=90	=90	=90	=90	=90	=90
1F	-gen-	1A	.	0A]	.	1.c	ca-	1a	-gen-
1F	-tem	[1F	-tem	.	.	.	.	1a	-tem
.	.	.	.	.	.	2c\	-pi-	.	.
=91	=91	=91	=91	=91	=91	=91	=91	=91	=91
1.BB-	ca-	1F]	.	[0d	.	1.B-	-ti	1.b-	ca-
.	.	[1B-	ca-	.	.	.	.	.	.
2BB-/	-pi-	.	.	.	.	4A/	.	2b-\	-pi-
.	.	.	.	.	.	4G/	.	.	.
=92	=92	=92	=92	=92	=92	=92	=92	=92	=92
0BB-	-ti	2B-\]	.	0d]	.	1F	.	0b-	-ti
.	.	2B-\	-pi-	.	.	.	.	.	.
.	.	1B-	-ti	.	.	1f	.	.	.
=93	=93	=93	=93	=93	=93	=93	=93	=93	=93
1.C	Do-	1.G	Do-	[0c	-a	2r	.	1r	.
.	.	.	.	.	.	1e	Do-	.	.
.	.	.	.	.	.	.	.	[1g	Do-
2C/	-mi-	2G\	-mi-	.	.	2e\	-mi-	.	.
=94	=94	=94	=94	=94	=94	=94	=94	=94	=94
1C	-num	1G	-num	1c]	.	1e	-num	2g/]	.
.	.	.	.	.	.	.	.	2g/	-mi-
1GG	ges-	1G	ges-	1B-	.	1d	ges-	2g/	-num
.	.	.	.	.	.	.	.	2g/	ges-
=95	=95	=95	=95	=95	=95	=95	=95	=95	=95
1.D	-ta-	2F\	-ta-	0A	in-	1.f	-ta-	2a/	-ta-
.	.	2D\	-re	.	.	.	.	4f/	-re
.	.	.	.	.	.	.	.	4g/	.
.	.	2F\	co-	.	.	.	.	4a/	.
.	.	.	.	.	.	.	.	4b-\	.
2AA/	-re	[2E\	-ro-	.	.	2c\	-re	[2cc\	.
=96	=96	=96	=96	=96	=96	=96	=96	=96	=96
1C	co-	2E\]	.	0G	-no-	1e	co-	2cc\]	.
.	.	2C/	.	.	.	.	.	2g/	co-
1BB-	-ro-	1D	.	.	.	2d\	-ro-	1dd	-ro-
.	.	.	.	.	.	2B-\	.	.	.
=97	=97	=97	=97	=97	=97	=97	=97	=97	=97
[0AA	-nam,	1E	-nam,	[0A	-cens	2c\	.	2.cc\	.
.	.	.	.	.	.	2.A/	.	.	.
.	.	.	.	.	.	.	.	4b-\	.
.	.	2r	.	.	.	.	.	4a/	.
.	.	.	.	.	.	4B-\	.	4g/	.
.	.	2AA/	co-	.	.	4c\	.	[2a/	.
.	.	.	.	.	.	4d\	.	.	.
=98	=98	=98	=98	=98	=98	=98	=98	=98	=98
0AA]	.	2C/	-ro-	0A_	.	4e\	.	2a/]	.
.	.	.	.	.	.	4f\	.	.	.
.	.	2D\	.	.	.	1d	.	4g/	.
.	.	.	.	.	.	.	.	4f/	.
.	.	1E	.	.	.	.	.	1e	.
.	.	.	.	.	.	2c#i\	.	.	.
=99	=99	=99	=99	=99	=99	=99	=99	=99	=99
0D	.	1F	-nam,	0A]	.	1d	-nam,	0d	-nam,
.	.	[1D	For-	.	.	1r	.	.	.
=100	=100	=100	=100	=100	=100	=100	=100	=100	=100
0GG	For-	1D]	.	[0G	.	0B-	For-	1r	.
.	.	1D	-tis	.	.	.	.	1d	For-
=101	=101	=101	=101	=101	=101	=101	=101	=101	=101
1GG	-tis	0G	a-	0G_	.	1B-	-tis	1d	-tis
[1C	a-	.	.	.	.	[1c	a-	[1e	a-
=102	=102	=102	=102	=102	=102	=102	=102	=102	=102
1C]	.	1G	-mor	0G]	.	1c]	.	1e]	.
1C	-mor	[1E	do-	.	.	1G	-mor	1e	-mor
=103	=103	=103	=103	=103	=103	=103	=103	=103	=103
1.AA	do-	2E\]	.	0r	.	1.c	do-	1.e	do-
.	.	2E\	-cu-	.	.	.	.	.	.
.	.	1E	-it	.	.	.	.	.	.
2AA/	-cu-	.	.	.	.	2c\	-cu-	2e/	-cu-
=104	=104	=104	=104	=104	=104	=104	=104	=104	=104
1AA	-it	1r	.	0r	.	2c\	-it	1e	-it
.	.	.	.	.	.	1A	ver-	.	.
[1D	ver-	[1F	ver-	.	.	.	.	1r	.
.	.	.	.	.	.	2A/	-be-	.	.
=105	=105	=105	=105	=105	=105	=105	=105	=105	=105
2D\]	.	2F\]	.	0r	.	2A/	-ra	0r	.
2D\	-be-	2F\	-be-	.	.	2.B-\	tan-	.	.
2D\	-ra	2F\	-ra	.	.	.	.	.	.
.	.	.	.	.	.	4A/	.	.	.
2D\	tan-	2F\	tan-	.	.	[2A/	-ta	.	.
=106	=106	=106	=106	=106	=106	=106	=106	=106	=106
2C/	-ta	2E\	-ta	0r	.	2A/]	.	1r	.
2BB-/	pa-	2D\	pa-	.	.	2G/	pa-	.	.
1AA	-ti,	2C/	-ti,	.	.	2A/	-ti,	2r	.
.	.	[2A\	ver-	.	.	[2c\	ver-	[2f/	ver-
=107	=107	=107	=107	=107	=107	=107	=107	=107	=107
0r	.	2A\]	.	0r	.	2c\]	.	2f/]	.
.	.	2A\	-be-	.	.	2c\	-be-	2f/	-be-
.	.	2A\	-ra	.	.	2c\	-ra	2f/	-ra
.	.	2A\	tan-	.	.	2c\	tan-	2f/	tan-
=108	=108	=108	=108	=108	=108	=108	=108	=108	=108
0r	.	2G\	-ta	0r	.	2B-\	-ta	2e/	-ta
.	.	2F\	pa-	.	.	2A/	pa-	2d/	pa-
.	.	1E	-ti,	.	.	1G	-ti,	1c	-ti,
=109	=109	=109	=109	=109	=109	=109	=109	=109	=109
1.D	ver-	2r	.	[0F	Do-	0r	.	0r	.
.	.	2A\	ver-	.	.	.	.	.	.
.	.	2D\	-be-	.	.	.	.	.	.
2D\	-be-	[2A\	-ra	.	.	.	.	.	.
=110	=110	=110	=110	=110	=110	=110	=110	=110	=110
2D\	-ra	4A\]	.	1F]	.	2.A/	ver-	0r	.
.	.	4G\	.	.	.	.	.	.	.
2D\	tan-	2F\	.	.	.	.	.	.	.
.	.	.	.	.	.	4B-\	-be-	.	.
2C/	-ta	2E\	tan-	1G	-mi-	2c\	-ra	.	.
2BB-/	pa-	2D\	-ta	.	.	[2d\	tan-	.	.
=111	=111	=111	=111	=111	=111	=111	=111	=111	=111
1AA	-ti,	1E	pa-	0A	-nus	2d\]	.	1r	.
.	.	.	.	.	.	2c#i\	-ta	.	.
[1D	ver-	1D	-ti,	.	.	1d	pa-	[1f	ver-
=112	=112	=112	=112	=112	=112	=112	=112	=112	=112
2D\]	.	1r	.	0B-	oc-	2.D/	-ti,	2f/]	.
2D\	-be-	.	.	.	.	.	.	2f/	-be-
.	.	.	.	.	.	4E/	.	.	.
2D\	-ra	1D	tan-	.	.	1F	.	2f/	-ra
2D\	tan-	.	.	.	.	.	.	2f/	tan-
=113	=113	=113	=113	=113	=113	=113	=113	=113	=113
2C/	-ta	1E	-ta	0c	-ci-	1G	.	2e/	-ta
2BB-/	pa-	.	.	.	.	.	.	2d/	pa-
1AA	-ti,	1E	pa-	.	.	2.A/	ver-	1c	-ti,
.	.	.	.	.	.	4A/	-be-	.	.
=114	=114	=114	=114	=114	=114	=114	=114	=114	=114
2.D\	ver-	1F	-ti,	0A	-sus	2A/	-ra	2r	.
.	.	.	.	.	.	2A/	tan-	2.f/	tan-
4D\	-be-	.	.	.	.	.	.	.	.
2D\	-ra	2.D\	ver-	.	.	2F/	-ta	.	.
.	.	.	.	.	.	.	.	4g/	.
2D\	tan-	.	.	.	.	2D/	pa-	2a/	-ta
.	.	4D\	-be-	.	.	.	.	.	.
=115	=115	=115	=115	=115	=115	=115	=115	=115	=115
2BB-/	-ta	2D\	-ra	[0B-	est.	1D	-ti,	2d/	pa-
2GG/	pa-	2D\	tan-	.	.	.	.	2dd\	-ti,
1GG	-ti,	2BB-/	-ta	.	.	2.d\	ver-	2r	.
.	.	2GG/	pa-	.	.	.	.	[2dd\	ver-
.	.	.	.	.	.	4d\	-be-	.	.
=116	=116	=116	=116	=116	=116	=116	=116	=116	=116
1r	.	1GG	-ti,	0B-_	.	2d\	-ra	2dd\]	.
.	.	.	.	.	.	2d\	tan-	2dd\	-be-
[1GG	tan-	1G	.	.	.	2B-\	-ta	2dd\	-ra
.	.	.	.	.	.	2G/	pa-	2dd\	tan-
=117	=117	=117	=117	=117	=117	=117	=117	=117	=117
0GG]	.	2r	.	0B-]	.	1G	-ti,	2.b-\	-ta
.	.	2.G\	ver-	.	.	.	.	.	.
.	.	.	.	.	.	.	.	4g/	pa-
.	.	.	.	.	.	[1d	.	2g/	-ti,
.	.	4G\	-be-	.	.	.	.	.	.
.	.	2G\	-ra	.	.	.	.	2g/	tan-
=118	=118	=118	=118	=118	=118	=118	=118	=118	=118
0D	.	2F\	tan-	[0Al	.	2d\]	.	2.a/	-ta
.	.	2D\	-ta	.	.	1f	tan-	.	.
.	.	.	.	.	.	.	.	4f/	pa-
.	.	1F	pa-	.	.	.	.	1f	-ti,
.	.	.	.	.	.	4e\	.	.	.
.	.	.	.	.	.	4d\	.	.	.
=119	=119	=119	=119	=119	=119	=119	=119	=119	=119
1AA	-ta-	1E	-ti,	0A_	.	1c	.	2r	.
.	.	.	.	.	.	.	.	2cc\	tan-
1D	.	2r	.	.	.	1F	-ta	2.a/	-ta
.	.	2D\	tan-	.	.	.	.	.	.
.	.	.	.	.	.	.	.	4b-\	pa-
=120	=120	=120	=120	=120	=120	=120	=120	=120	=120
1C	-pa-	2E\	-ta	0A_	.	2r	.	1cc	-ti,
.	.	2C/	.	.	.	2c\	tan-	.	.
1D	.	1F	pa-	.	.	2.A/	-ta	1r	.
.	.	.	.	.	.	4B-\	pa-	.	.
=121	=121	=121	=121	=121	=121	=121	=121	=121	=121
[0AAl	-ti.	[0El	-ti.	0A_	.	[0cl	-ti.	2r	.
.	.	.	.	.	.	.	.	2cc\	tan-
.	.	.	.	.	.	.	.	2.a/	-ta
.	.	.	.	.	.	.	.	4b-\	pa-
=122	=122	=122	=122	=122	=122	=122	=122	=122	=122
0AA]	.	0E]	.	0A]	.	0c]	.	0ccl	-ti.
!!LO:LB:i:g=z
=123||	=123||	=123||	=123||	=123||	=123||	=123||	=123||	=123||	=123||
*>B	*>B	*>B	*>B	*>B	*>B	*>B	*>B	*>B	*>B
*clefF4	*	*clefF4	*	*clefGv2	*	*clefGv2	*	*clefG2	*
*k[b-]	*	*k[b-]	*	*k[b-]	*	*k[b-]	*	*k[b-]	*
*M2/1	*	*M2/1	*	*M2/1	*	*M2/1	*	*M2/1	*
*met(C|)	*	*met(C|)	*	*met(C|)	*	*met(C|)	*	*met(C|)	*
!!section: Secunda pars: Felle sitim magni regis
!!!OMD: Secunda pars: Felle sitim magni regis
0r	.	0r	.	0r	.	0r	.	0g	Fel-
=124	=124	=124	=124	=124	=124	=124	=124	=124	=124
0r	.	0r	.	0r	.	0r	.	1g	-le
.	.	.	.	.	.	.	.	[1a	si-
=125	=125	=125	=125	=125	=125	=125	=125	=125	=125
0r	.	0r	.	0r	.	0c	Fel-	1a]	.
.	.	.	.	.	.	.	.	1g	-tim
=126	=126	=126	=126	=126	=126	=126	=126	=126	=126
0r	.	0r	.	0r	.	1c	-le	1cc	ma-
.	.	.	.	.	.	[1d	si-	2b-\	-gni
.	.	.	.	.	.	.	.	[2a/	re-
=127	=127	=127	=127	=127	=127	=127	=127	=127	=127
0r	.	0r	.	0r	.	1d]	.	2a/]	.
.	.	.	.	.	.	.	.	4g/	.
.	.	.	.	.	.	.	.	4f/	.
.	.	.	.	.	.	1c	-tim	1e	.
=128	=128	=128	=128	=128	=128	=128	=128	=128	=128
0r	.	0r	.	0r	.	1f	ma-	1d	-gis
.	.	.	.	.	.	2e\	-gni	1r	.
.	.	.	.	.	.	[2d\	re-	.	.
=129	=129	=129	=129	=129	=129	=129	=129	=129	=129
0r	.	0r	.	0r	.	2d\]	.	1a	sa-
.	.	.	.	.	.	4c\	.	.	.
.	.	.	.	.	.	4B-\	.	.	.
.	.	.	.	.	.	1A	.	1a	-ti-
=130	=130	=130	=130	=130	=130	=130	=130	=130	=130
0r	.	0r	.	0r	.	1G	-gis	2.b-\	-a-
.	.	.	.	.	.	.	.	4g/	.
.	.	.	.	.	.	1d	sa-	2b-\	-vit
.	.	.	.	.	.	.	.	[2a/	a-
=131	=131	=131	=131	=131	=131	=131	=131	=131	=131
0r	.	0r	.	0r	.	1d	-ti-	2a/]	.
.	.	.	.	.	.	.	.	1b-	-ma-
.	.	.	.	.	.	[1e-	-a-	.	.
.	.	.	.	.	.	.	.	4a/	.
.	.	.	.	.	.	.	.	4g/	.
=132	=132	=132	=132	=132	=132	=132	=132	=132	=132
0r	.	0r	.	0r	.	2e-\]	.	1.cc	.
.	.	.	.	.	.	4d\	.	.	.
.	.	.	.	.	.	4c\	.	.	.
.	.	.	.	.	.	2e-i\	-vit	.	.
.	.	.	.	.	.	2d\	a-	2b-\	.
=133	=133	=133	=133	=133	=133	=133	=133	=133	=133
0r	.	0r	.	0r	.	2c\	-ma-	2a/	.
.	.	.	.	.	.	2B-\	.	1g	.
.	.	.	.	.	.	1A	.	.	.
.	.	.	.	.	.	.	.	4f/	.
.	.	.	.	.	.	.	.	4e/	.
=134	=134	=134	=134	=134	=134	=134	=134	=134	=134
1r	.	1A	Sa-	0r	.	1D	-ro	0f	-ro
1D	Sa-	1A	-ti-	.	.	2r	.	.	.
.	.	.	.	.	.	[2F/	sa-	.	.
=135	=135	=135	=135	=135	=135	=135	=135	=135	=135
1D	-ti-	1.B-	-a-	0r	.	2F/]	.	0r	.
.	.	.	.	.	.	2F/	-ti-	.	.
[1E-	-a-	.	.	.	.	[1G	-a-	.	.
.	.	4A\	.	.	.	.	.	.	.
.	.	4G\	.	.	.	.	.	.	.
=136	=136	=136	=136	=136	=136	=136	=136	=136	=136
2E-\]	.	1c	-vit	0r	.	2G/]	.	0r	.
4D\	.	.	.	.	.	4F/	.	.	.
4C/	.	.	.	.	.	4E/	.	.	.
2E-i\	-vit	2.B-\	a-	.	.	2G/	-vit	.	.
2D\	a-	.	.	.	.	2F/	a-	.	.
.	.	8A\L	.	.	.	.	.	.	.
.	.	8B-\J	.	.	.	.	.	.	.
=137	=137	=137	=137	=137	=137	=137	=137	=137	=137
2C/	-ma-	2A\	-ma-	0r	.	2E/	-ma-	0r	.
2BB-/	.	2.G\	.	.	.	2.D/	.	.	.
1AA	.	.	.	.	.	.	.	.	.
.	.	4F#i\	.	.	.	4C/	.	.	.
.	.	4F#i\	.	.	.	4C/	.	.	.
.	.	4E\	.	.	.	4BB-/	.	.	.
=138	=138	=138	=138	=138	=138	=138	=138	=138	=138
[0GG	-ro	0G	-ro	0r	.	1D	ro	0b-	Pec-
.	.	.	.	.	.	[1d	Pec-	.	.
=139	=139	=139	=139	=139	=139	=139	=139	=139	=139
0GG]	.	1r	.	0G	Plan-	1d]	.	1b-	-tus
.	.	1G	Pec-	.	.	2.d\	-tus	1b-	ut
.	.	.	.	.	.	4e\	.	.	.
=140	=140	=140	=140	=140	=140	=140	=140	=140	=140
0r	.	1F	-tus	0A	-gent	1f	.	1a	hau-
.	.	2F\	ut-	.	.	2r	.	[1cc	.
.	.	[2A\	-hau-	.	.	2F/	ut	.	.
=141	=141	=141	=141	=141	=141	=141	=141	=141	=141
0r	.	2A\]	.	0c	e-	1F	hau-	2cc\]	.
.	.	4G\	.	.	.	.	.	4b-\	.
.	.	4F\	.	.	.	.	.	4a/	.
.	.	1E	-ri-	.	.	2.G/	.	1g	-ri-
.	.	.	.	.	.	4A/	.	.	.
=142	=142	=142	=142	=142	=142	=142	=142	=142	=142
0r	.	1D	-ret	0d	.	2B-\	.	0f	-ret
.	.	.	.	.	.	2A/	.	.	.
.	.	1r	.	.	.	1B-	-ri-	.	.
=143	=143	=143	=143	=143	=143	=143	=143	=143	=143
1.D	lan-	1.F	lan-	0d	-um	1A	-ret	2r	.
.	.	.	.	.	.	.	.	1f	lan-
.	.	.	.	.	.	2r	.	.	.
2D\	-ce-	2F\	-ce-	.	.	[2A/	lan-	2f/	-ce-
=144	=144	=144	=144	=144	=144	=144	=144	=144	=144
1D	-a	1F	-a	0r	.	2A/]	.	1f	-a
.	.	.	.	.	.	2A/	-ce-	.	.
1BB-	fe-	1G	fe-	.	.	1B-	-a	1d	fe-
=145	=145	=145	=145	=145	=145	=145	=145	=145	=145
1.C	-cit	1.E	-cit	0r	.	1G	fe-	1.e	-cit
.	.	.	.	.	.	[1A	-cit	.	.
2AA/	a-	2E\	a-	.	.	.	.	2e/	a-
=146	=146	=146	=146	=146	=146	=146	=146	=146	=146
0AA	-mor.	0E	-mor.	0c	qua-	2A/]	.	1e	-mor,
.	.	.	.	.	.	2A/	a-	.	.
.	.	.	.	.	.	1A	-mor,	2r	.
.	.	.	.	.	.	.	.	2cc\	fe-
=147	=147	=147	=147	=147	=147	=147	=147	=147	=147
0r	.	0r	.	0d	-si	2F/	fe-	2a/	-cit
.	.	.	.	.	.	2.G/	-cit	2.b-\	a-
.	.	.	.	.	.	4A/	.	4cc\	.
.	.	.	.	.	.	2B-\	.	2dd\	.
=148	=148	=148	=148	=148	=148	=148	=148	=148	=148
0r	.	1r	.	1e	u-	2c\	a-	2g/	.
.	.	.	.	.	.	2.A/	-mor,	2.cc\	-mor,
.	.	[1F	De	1c	-ni-	.	.	.	.
.	.	.	.	.	.	4G/	.	4b-\	.
.	.	.	.	.	.	4F/	.	4a/	.
.	.	.	.	.	.	4E/	.	4g/	.
=149	=149	=149	=149	=149	=149	=149	=149	=149	=149
0BB-	De	1F]	.	1.d	-ge-	1D	.	0f	.
.	.	1F	me	.	.	1r	.	.	.
.	.	.	.	2d\	-ni-	.	.	.	.
=150	=150	=150	=150	=150	=150	=150	=150	=150	=150
1BB-	me	1F	so-	0d	-tum	1D	De	0r	.
1BB-	so-	1G	-lus	.	.	1D	me	.	.
=151	=151	=151	=151	=151	=151	=151	=151	=151	=151
1C	-lus	0A	a-	0r	.	1E	so-	0r	.
[1D	a-	.	.	.	.	2.F/	lus	.	.
.	.	.	.	.	.	4G/	.	.	.
=152	=152	=152	=152	=152	=152	=152	=152	=152	=152
1D]	.	0D	-mor	0r	.	2A/	.	0r	.
.	.	.	.	.	.	1B-	a-	.	.
1GG	-mor	.	.	.	.	.	.	.	.
.	.	.	.	.	.	4A/	.	.	.
.	.	.	.	.	.	4G/	.	.	.
=153	=153	=153	=153	=153	=153	=153	=153	=153	=153
1.D	po-	1.F	po-	0A	qui-	2A/	.	0r	.
.	.	.	.	.	.	2D/	-mor	.	.
.	.	.	.	.	.	[1f	po-	.	.
2D\	-tu-	2F\	-tu-	.	.	.	.	.	.
=154	=154	=154	=154	=154	=154	=154	=154	=154	=154
1D	-it	1F	-it	0d	.	2f\]	.	0r	.
.	.	.	.	.	.	2f\	-tu-	.	.
1BB-	per	1B-	per-	.	.	1f	-it	.	.
=155	=155	=155	=155	=155	=155	=155	=155	=155	=155
1F	fe-	1A	-fe-	1.c	-a	2r	.	0r	.
.	.	.	.	.	.	2f\	per-	.	.
2C/	.	2G\	.	.	.	2e\	-fer-	.	.
[2D\	-re	[2F\	-re	2B-\	.	[2f\	-re	.	.
=156	=156	=156	=156	=156	=156	=156	=156	=156	=156
4D\]	.	2F\]	.	1A	in-	4f\]	.	0r	.
4C/	.	.	.	.	.	4e\	.	.	.
2AA/	tri-	2E\	tri-	.	.	2c\	tri-	.	.
1BB-	-um-	1D	-um-	1G	-no-	1d	-um-	.	.
=157	=157	=157	=157	=157	=157	=157	=157	=157	=157
0AA	-phum;	[0E	-phum;	0A	-cens	1c	-phum;	1.cc	Il-
.	.	.	.	.	.	2r	.	.	.
.	.	.	.	.	.	[2c\	Il-	2cc\	-li
=158	=158	=158	=158	=158	=158	=158	=158	=158	=158
1.C	Il-	1E]	.	0G	.	2c\]	.	1cc	pe-
.	.	.	.	.	.	2c\	-le	.	.
.	.	2r	.	.	.	1c	pe-	1g	des
2C/	-le	[2G\	Il-	.	.	.	.	.	.
=159	=159	=159	=159	=159	=159	=159	=159	=159	=159
1C	pe-	2G\]	.	0r	.	1G	-des	1r	.
.	.	2G\	-le	.	.	.	.	.	.
2GG/	-des	1G	pe-	.	.	[1d	cla-	[1b-	cla-
[2G\	cla-	.	.	.	.	.	.	.	.
=160	=160	=160	=160	=160	=160	=160	=160	=160	=160
2G\]	.	1D	-des	0r	.	2d\]	.	2b-\]	.
2F\	-vis	.	.	.	.	2A/	-vis	2a/	vis
1G	fi-	[1d	cla-	.	.	1B-	fi-	1g	fi-
=161	=161	=161	=161	=161	=161	=161	=161	=161	=161
1D	-xit	2d\]	.	1.F	Do-	1A	-xit	1f	-xit
.	.	2d\	-vis	.	.	.	.	.	.
2r	.	1d	fi-	.	.	2A/	et	1r	.
2GG/	et	.	.	2G/	-mi-	[2B-\	il-	.	.
=162	=162	=162	=162	=162	=162	=162	=162	=162	=162
2.D\	il-	1d	-xit	1A	-nus	4B-\]	.	0r	.
.	.	.	.	.	.	4A/	.	.	.
.	.	.	.	.	.	2A/	-le	.	.
4C/	-le	.	.	.	.	.	.	.	.
1BB-	ma-	2r	.	1B-	oc-	2.G/	ma-	.	.
.	.	2D\	et	.	.	.	.	.	.
.	.	.	.	.	.	4F/	.	.	.
=163	=163	=163	=163	=163	=163	=163	=163	=163	=163
0AA	-nus.	1E	il-	1c	-ci-	0A	-nus.	2a/	et
.	.	.	.	.	.	.	.	2.cc\	il-
.	.	1F	-le	1A	-sus	.	.	.	.
.	.	.	.	.	.	.	.	4b-\	-le
.	.	.	.	.	.	.	.	[2a/	ma-
=164	=164	=164	=164	=164	=164	=164	=164	=164	=164
0r	.	0G	ma-	0B-	est.	1r	.	2a/]	.
.	.	.	.	.	.	.	.	4g/	.
.	.	.	.	.	.	.	.	4f/	.
.	.	.	.	.	.	1d	Si	1g	.
=165	=165	=165	=165	=165	=165	=165	=165	=165	=165
1r	.	[0D	-nus.	[0A	.	0d	cu-	0a	-nus.
[1D	Si-	.	.	.	.	.	.	.	.
=166	=166	=166	=166	=166	=166	=166	=166	=166	=166
2D\]	.	0D]	.	0A]	.	1d	-pis	1r	.
2E\	-cu-	.	.	.	.	.	.	.	.
1F	-pis	.	.	.	.	[1d	er-	1a	Si
=167	=167	=167	=167	=167	=167	=167	=167	=167	=167
1G	er-	0r	.	0r	.	1d]	.	1b-	cu-
2D\	.	.	.	.	.	1d	-go	2a/	-pis
[2G\	.	.	.	.	.	.	.	[2b-\	er-
=168	=168	=168	=168	=168	=168	=168	=168	=168	=168
2G\]	.	0r	.	0r	.	1.d	a-	2b-\]	.
4F\	.	.	.	.	.	.	.	4a/	.
4E\	.	.	.	.	.	.	.	4g/	.
2F\	.	.	.	.	.	.	.	2a/	.
2G\	.	.	.	.	.	2d\	-ni-	2d/	-go
=169	=169	=169	=169	=169	=169	=169	=169	=169	=169
2D\	-go	0r	.	0r	.	1d	-mi	1.f	a-
1B-	a-	.	.	.	.	.	.	.	.
.	.	.	.	.	.	1d	mi-	.	.
2B-\	-ni-	.	.	.	.	.	.	2f/	-ni-
=170	=170	=170	=170	=170	=170	=170	=170	=170	=170
2B-\	-mi	0r	.	0r	.	1d	-hi	2f/	-mi
1BB-	mi-	.	.	.	.	.	.	1b-	mi-
.	.	.	.	.	.	[1d	sig-	.	.
2BB-/	-hi	.	.	.	.	.	.	2b-\	-hi
=171	=171	=171	=171	=171	=171	=171	=171	=171	=171
1BB-	sig-	0r	.	0r	.	2d\]	.	1b-	sig-
.	.	.	.	.	.	4c\	.	.	.
.	.	.	.	.	.	4B-\	.	.	.
1F	-na	.	.	.	.	1c	.	1a	-na
=172	=172	=172	=172	=172	=172	=172	=172	=172	=172
2BB-/	re-	0r	.	0r	.	1B-	-na	1.dd	re-
1B-	-pen-	.	.	.	.	.	.	.	.
.	.	.	.	.	.	2G/	re-	.	.
2A\	-de-	.	.	.	.	2A/	-pen-	2cc\	-pen-
=173	=173	=173	=173	=173	=173	=173	=173	=173	=173
2G\	-re	0r	.	0r	.	2B-\	-de-	2b-\	-de-
2F\	.	.	.	.	.	2.c\	-re	2.a/	-re
1E	.	.	.	.	.	.	.	.	.
.	.	.	.	.	.	4B-\	.	4g/	.
.	.	.	.	.	.	2G/	.	[2g/	gra-
=174	=174	=174	=174	=174	=174	=174	=174	=174	=174
1D	gra-	1r	.	0r	.	1A	gra-	2g/]	.
.	.	.	.	.	.	.	.	2f#i/	.
[1GG	-ti,	2r	.	.	.	1G	-ti,	1g	-ti,
.	.	[2G\	Di-	.	.	.	.	.	.
=175	=175	=175	=175	=175	=175	=175	=175	=175	=175
1GG]	.	2G\]	.	1G	Plan-	0r	.	2.b-\	Di-
.	.	2G\	-li-	.	.	.	.	.	.
.	.	.	.	.	.	.	.	4b-\	-li-
1r	.	2F\	-ge	1A	-gent	.	.	2a/	-ge;
.	.	2D\	pro	.	.	.	.	2f/	pro
=176	=176	=176	=176	=176	=176	=176	=176	=176	=176
1r	.	1E	tan-	1c	e-	0r	.	1g	tan-
[1D	Di-	4D\	.	1d	.	.	.	[1f	.
.	.	4E\	.	.	.	.	.	.	.
.	.	4F\	.	.	.	.	.	.	.
.	.	4G\	.	.	.	.	.	.	.
=177	=177	=177	=177	=177	=177	=177	=177	=177	=177
2D\]	.	4A\	.	1d	-um	0r	.	2f/]	.
.	.	4F\	.	.	.	.	.	.	.
2D\	-li-	2.B-\	.	.	.	.	.	4e/	.
.	.	.	.	.	.	.	.	4d/	.
2C/	-ge;	.	.	1r	.	.	.	1e	.
.	.	4A\	.	.	.	.	.	.	.
2AA/	pro	[2A\	.	.	.	.	.	.	.
=178	=178	=178	=178	=178	=178	=178	=178	=178	=178
1BB-	tan-	2A\]	.	1r	.	2.d\	Di-	1d	-tis,
.	.	2G\	.	.	.	.	.	.	.
.	.	.	.	.	.	4c\	-li-	.	.
1AA	-tis,	1A	-tis,	1c	qua-	2c\	-ge;	1r	.
.	.	.	.	.	.	2A/	pro	.	.
=179	=179	=179	=179	=179	=179	=179	=179	=179	=179
0r	.	0r	.	1d	-si	1B-	tan-	2.dd\	di-
.	.	.	.	.	.	.	.	4dd\	-li-
.	.	.	.	2e\	u-	1A	-tis,	2cc\	-ge;
.	.	.	.	2c\	-ni-	.	.	2a/	pro
=180	=180	=180	=180	=180	=180	=180	=180	=180	=180
1r	.	2.G\	di-	2.d\	-ge-	0r	.	1b-	tan-
.	.	4G\	-li-	4d\	-ni-	.	.	.	.
2.D\	di-	2F\	-ge;	1d	-tum	.	.	1a	-tis,
.	.	2D\	pro-	.	.	.	.	.	.
4D\	-li-	.	.	.	.	.	.	.	.
=181	=181	=181	=181	=181	=181	=181	=181	=181	=181
2C/	-ge;	1E	-tan-	0r	.	2r	.	0r	.
2AA/	pro	.	.	.	.	2A/	pro	.	.
1BB-	tan-	1D	-tis-	.	.	1d	tan-	.	.
=182	=182	=182	=182	=182	=182	=182	=182	=182	=182
1AA	-tis	2r	.	1A	qui-	1c	-tis	2r	.
.	.	2A\	-sat	.	.	.	.	2e/	sat
1r	.	1B-	mi-	1d	.	1r	.	1g	mi-
=183	=183	=183	=183	=183	=183	=183	=183	=183	=183
0r	.	2.A\	-hi	2.c\	-a	0r	.	2.f/	-hi
.	.	4G\	so-	4B-\	.	.	.	4e/	so-
.	.	2F\	-lus	2A/	in-	.	.	2d/	-lus
.	.	2E\	a-	2G/	-no-	.	.	2c#i/	a-
=184	=184	=184	=184	=184	=184	=184	=184	=184	=184
2r	.	1D	-mor,	1A	-cens	2r	.	0d	-mor,
2A\	sat	.	.	.	.	2f\	sat	.	.
1B-	mi-	1r	.	1G	.	1g	mi-	.	.
=185	=185	=185	=185	=185	=185	=185	=185	=185	=185
2.A\	-hi	1r	.	0r	.	2.f\	-hi	1r	.
4G\	so-	.	.	.	.	4e\	so-	.	.
2F\	-lus	2r	.	.	.	2d\	-lus	2r	.
2E\	a-	2G\	sat	.	.	2c#i\	a-	2g/	sat
=186	=186	=186	=186	=186	=186	=186	=186	=186	=186
1D	-mor,	2B-\	mi-	2.F/	Do-	1d	-mor,	2f/	mi-
.	.	2A\	-hi	.	.	.	.	2.a/	-hi
.	.	.	.	4G/	-mi-	.	.	.	.
1r	.	2F\	so-	2A/	-nus	1r	.	.	.
.	.	.	.	.	.	.	.	4g/	so-
.	.	2G\	-lus	2B-\	oc-	.	.	[2g/	-lus
=187	=187	=187	=187	=187	=187	=187	=187	=187	=187
1r	.	1A	a-	2c\	-ci-	2r	.	2g/]	.
.	.	.	.	2A/	-sus	2c\	sat	2f#i/	a-
1GG	so-	1G	-mor,	1B-	est.	2d\	mi-	2g/	-mor,
.	.	.	.	.	.	2B-\	-hi	2dd\	sat
=188	=188	=188	=188	=188	=188	=188	=188	=188	=188
1AA	-lus	2r	.	[0Al	.	2c\	so-	2.cc\	mi-
.	.	2E\	sat	.	.	2A/	-lus,	.	.
.	.	.	.	.	.	.	.	4b-\	.
2.FF/	a-	1F	mi-	.	.	2r	.	4a/	-hi
.	.	.	.	.	.	.	.	4g/	.
.	.	.	.	.	.	2A/	so-	[2a/	so-
4GG/	.	.	.	.	.	.	.	.	.
=189	=189	=189	=189	=189	=189	=189	=189	=189	=189
1AA	-mor,	2E\	-hi	0A_	.	2.c\	-lus	2a/]	.
.	.	2.c\	so-	.	.	.	.	4g/	.
.	.	.	.	.	.	4A/	a-	4f/	.
2r	.	.	.	.	.	2A/	-mor,	2e/	-lus
.	.	4B-\	.	.	.	.	.	.	.
2AA/	so-	[2A\	-lus	.	.	2A/	so-	[2f/	a-
=190	=190	=190	=190	=190	=190	=190	=190	=190	=190
2.FF/	-lus	2A\]	.	0A_	.	2.c\	-lus	2f/]	.
.	.	4G\	.	.	.	.	.	4e/	.
4GG/	.	4F\	.	.	.	4A/	a-	4d/	.
1AA	a-	1E	a-	.	.	2A/	-mor,	4c#i/	.
.	.	.	.	.	.	.	.	4d/	.
.	.	.	.	.	.	2E/	so-	4e/	.
.	.	.	.	.	.	.	.	4c#i/	.
=191	=191	=191	=191	=191	=191	=191	=191	=191	=191
*^	*	*	*	*	*	*	*	*	*
[y0DD\l	[y0D/l	-mor.	[0Dl	-mor.	0A_	.	1.F	-lus	[0dl	-mor.
.	.	.	.	.	.	.	2D/	a-	.	.
=192	=192	=192	=192	=192	=192	=192	=192	=192	=192	=192
0DD]yy	0D]yy	.	0D]	.	0A]	.	0Dl	-mor.	0d]	.
*v	*v	*	*	*	*	*	*	*	*	*
==	==	==	==	==	==	==	==	==	==
*-	*-	*-	*-	*-	*-	*-	*-	*-	*-
!!!RDF**kern: l=long note in original notation
!!!RDF**kern: i=editorial accidental
!!!ENC: Jesse Rodin; Victoria Chang 2011/05/17; JR 2013/02 (text)
!!!END: 2013/03/08
!!!EED: Jesse Rodin
!!!EEV: 2013/03/08/
!!attribution-level@Jos: 1 (secure)
!!!ONB: Translated from MusicXML and edited on 2011/08/12/ by Craig Sapp
!!xmuse2ps: u^(2) @{OTL2}^C^@{COM}\n@{SCT}^i2I100v110,110,110,110,110,110,110Q16
!!muse2ps: u^(2) @{OTL2}^C^@{COM}\n@{SCT}^z16i2I100v105,105,105,105,105,105,110c140
!!!ONB: April 2013 Concert
